X: 1
T:South Australia
M:4/4
C:
S:Holy Gr'Ale
N:
A:Adderbury
O:
R:Reel
%P:A(AB)$^4$
P:A(AB)4
%:
%:
%:
K:G
I:speed 400
P:A
   d2 | B2    d2  d2   d2 | e2    d2   d4    | e2 d2   d4    | e2   d2 d2
w: In   South Aus-tral-ia   I     was  born.   Heave a-way!    Haul a-way!
w: The  on-ly    thing that grieves my mind,   Heave a-way!    Haul a-way!
w: In   South Aus-tral-ia   Sky-lab    fell,   Heave a-way!    Haul a-way!
   GA | B2    d2  d2   B2 | A2    B2   G2 GA | B3 c    d2 B2 | A4      G2 ||
w: In_  South Aus-tral-ia  'round Cape Horn, We're_ bound for South Aus-tral-ia.
w: Is to leave Miss Nan-cy  Blair's be-hind. We're_ bound for South Aus-tral-ia.
w: **   Eight-y mil-lion    shot    to hell! We're_ bound for South Aus-tral-ia.
P:B
   z2 | g3 g  e2 g2       | e2 d2 d4         | e2 d2   d4    | e2 d2 d4 |
w:      Haul a-way, you     rol-ling kings.    Heave a-way,    haul a-way!
        g3 g  e2 g2       | e2 d2 B2 G2      | B3 c    d2 B2 | A4    G2 ||
w:      Haul a-way, you'll hear me sing: We're bound for South Aus-tral-ia.
